static/img/kroki/ec8c371391a3d6d55a03b97807267b0b.svg

<?xml version="1.0" encoding="us-ascii" standalone="no"?><svg xmlns="http://www.w3.org/2000/svg" xmlns:xlink="http://www.w3.org/1999/xlink" contentStyleType="text/css" height="374px" preserveAspectRatio="none" style="width:277px;height:374px;" version="1.1" viewBox="0 0 277 374" width="277px" zoomAndPan="magnify"><defs/><g><!--class aws_ec2_launch_template--><g id="elem_aws_ec2_launch_template"><rect codeLine="23" fill="#3D176E" height="39.7891" id="aws_ec2_launch_template" rx="2.5" ry="2.5" style="stroke:#000D19;stroke-width:0.5;" width="263" x="7" y="328.58"/><ellipse cx="22" cy="348.4745" fill="#ADD1B2" rx="11" ry="11" style="stroke:#181818;stroke-width:1.0;"/><path d="M24.9688,354.1152 Q24.3906,354.412 23.75,354.5527 Q23.1094,354.7089 22.4063,354.7089 Q19.9063,354.7089 18.5781,353.0683 Q17.2656,351.412 17.2656,348.287 Q17.2656,345.162 18.5781,343.5058 Q19.9063,341.8495 22.4063,341.8495 Q23.1094,341.8495 23.75,342.0058 Q24.4063,342.162 24.9688,342.4589 L24.9688,345.1777 Q24.3438,344.5995 23.75,344.3339 Q23.1563,344.0527 22.5313,344.0527 Q21.1875,344.0527 20.5,345.1308 Q19.8125,346.1933 19.8125,348.287 Q19.8125,350.3808 20.5,351.4589 Q21.1875,352.5214 22.5313,352.5214 Q23.1563,352.5214 23.75,352.2558 Q24.3438,351.9745 24.9688,351.3964 L24.9688,354.1152 Z " fill="#000000"/><text fill="#D9B8FF" font-family="Helvetica" font-size="17" lengthAdjust="spacing" textLength="221" x="41" y="354.3598">aws_ec2_launch_template</text></g><!--class aws_resource--><g id="elem_aws_resource"><rect codeLine="26" fill="#3D176E" height="39.7891" id="aws_resource" rx="2.5" ry="2.5" style="stroke:#000D19;stroke-width:0.5;" width="155" x="61" y="167.79"/><ellipse cx="76" cy="187.6845" fill="#ADD1B2" rx="11" ry="11" style="stroke:#181818;stroke-width:1.0;"/><path d="M78.9688,193.3252 Q78.3906,193.622 77.75,193.7627 Q77.1094,193.9189 76.4063,193.9189 Q73.9063,193.9189 72.5781,192.2783 Q71.2656,190.622 71.2656,187.497 Q71.2656,184.372 72.5781,182.7158 Q73.9063,181.0595 76.4063,181.0595 Q77.1094,181.0595 77.75,181.2158 Q78.4063,181.372 78.9688,181.6689 L78.9688,184.3877 Q78.3438,183.8095 77.75,183.5439 Q77.1563,183.2627 76.5313,183.2627 Q75.1875,183.2627 74.5,184.3408 Q73.8125,185.4033 73.8125,187.497 Q73.8125,189.5908 74.5,190.6689 Q75.1875,191.7314 76.5313,191.7314 Q77.1563,191.7314 77.75,191.4658 Q78.3438,191.1845 78.9688,190.6064 L78.9688,193.3252 Z " fill="#000000"/><text fill="#D9B8FF" font-family="Helvetica" font-size="17" lengthAdjust="spacing" textLength="113" x="95" y="193.5698">aws_resource</text></g><!--class resource--><g id="elem_resource"><rect codeLine="29" fill="#3D176E" height="39.7891" id="resource" rx="2.5" ry="2.5" style="stroke:#000D19;stroke-width:0.5;" width="113" x="82" y="7"/><ellipse cx="97" cy="26.8945" fill="#ADD1B2" rx="11" ry="11" style="stroke:#181818;stroke-width:1.0;"/><path d="M99.9688,32.5352 Q99.3906,32.832 98.75,32.9727 Q98.1094,33.1289 97.4063,33.1289 Q94.9063,33.1289 93.5781,31.4883 Q92.2656,29.832 92.2656,26.707 Q92.2656,23.582 93.5781,21.9258 Q94.9063,20.2695 97.4063,20.2695 Q98.1094,20.2695 98.75,20.4258 Q99.4063,20.582 99.9688,20.8789 L99.9688,23.5977 Q99.3438,23.0195 98.75,22.7539 Q98.1563,22.4727 97.5313,22.4727 Q96.1875,22.4727 95.5,23.5508 Q94.8125,24.6133 94.8125,26.707 Q94.8125,28.8008 95.5,29.8789 Q96.1875,30.9414 97.5313,30.9414 Q98.1563,30.9414 98.75,30.6758 Q99.3438,30.3945 99.9688,29.8164 L99.9688,32.5352 Z " fill="#000000"/><text fill="#D9B8FF" font-family="Helvetica" font-size="17" lengthAdjust="spacing" textLength="71" x="116" y="32.7798">resource</text></g><!--reverse link aws_resource to aws_ec2_launch_template--><g id="link_aws_resource_aws_ec2_launch_template"><path codeLine="32" d="M138.5,225.84 C138.5,256.36 138.5,297.69 138.5,328.25 " fill="none" id="aws_resource-backto-aws_ec2_launch_template" style="stroke:#FFAF37;stroke-width:2.0;"/><polygon fill="none" points="138.5,207.84,132.5,225.84,144.5,225.84,138.5,207.84" style="stroke:#FFAF37;stroke-width:2.0;"/></g><!--reverse link resource to aws_resource--><g id="link_resource_aws_resource"><path codeLine="33" d="M138.5,65.05 C138.5,95.57 138.5,136.9 138.5,167.46 " fill="none" id="resource-backto-aws_resource" style="stroke:#FFAF37;stroke-width:2.0;"/><polygon fill="none" points="138.5,47.05,132.5,65.05,144.5,65.05,138.5,47.05" style="stroke:#FFAF37;stroke-width:2.0;"/></g><!--SRC=[XT9DRy8m30RWUtz59Cv81RILIhi0qhHTq3HsHoPnQ4IRL8wxYdtyzy4OKzfIkDgFxDTHCgDGO57oNXHOR91yv7V6ba1GY1cHgnSkToG6MeEU9EtcexDy4ooXGF64-JkoaT0MRvcHEulUYt7GceFSRSbLLft6Cu7rXnPQ3jGY1-zdp6Gs5MCGHgMRgTPjsHuwcAXHSeyTvaWX_P4uZjKeRPERgwxU_IzMvWF5A7oqfMFinEoi-5LNKnv54B9pwBdVc_45b39sA-w2skif4rcaHdsLWNBrKMl8VRZ6Cn8wtfUuw5o5wLJfv29-xiEHF3wTWDglKOxNELHMPci-VE0S6CLd57q7XD2xYcIZtgmrrCFNS3ZicnrTOETIz0C0]--></g></svg>

<svg xmlns="http://www.w3.org/2000/svg" width="277" height="374" viewBox="0 0 277 374"><rect width="263" height="39.789" x="7" y="328.58" fill="#3D176E" rx="2.5" ry="2.5" style="stroke:#000d19;stroke-width:.5"/><circle cx="22" cy="348.474" r="11" fill="#ADD1B2" style="stroke:#181818;stroke-width:1"/><path d="M24.969 354.115q-.578.297-1.219.438-.64.156-1.344.156-2.5 0-3.828-1.64-1.312-1.657-1.312-4.782t1.312-4.781q1.328-1.656 3.828-1.656.703 0 1.344.156.656.156 1.219.453v2.719q-.625-.579-1.219-.844-.594-.281-1.219-.281-1.343 0-2.031 1.078-.687 1.062-.687 3.156t.687 3.172q.688 1.062 2.031 1.062.625 0 1.219-.265.594-.281 1.219-.86z"/><text x="41" y="354.36" fill="#D9B8FF" font-family="Helvetica" font-size="17" textLength="221">aws_ec2_launch_template</text><rect width="155" height="39.789" x="61" y="167.79" fill="#3D176E" rx="2.5" ry="2.5" style="stroke:#000d19;stroke-width:.5"/><circle cx="76" cy="187.685" r="11" fill="#ADD1B2" style="stroke:#181818;stroke-width:1"/><path d="M78.969 193.325q-.578.297-1.219.438-.64.156-1.344.156-2.5 0-3.828-1.64-1.312-1.657-1.312-4.782t1.312-4.781q1.328-1.656 3.828-1.656.703 0 1.344.156.656.156 1.219.453v2.719q-.625-.578-1.219-.844-.594-.281-1.219-.281-1.344 0-2.031 1.078-.687 1.062-.687 3.156t.687 3.172q.688 1.062 2.031 1.062.625 0 1.219-.265.594-.281 1.219-.86z"/><text x="95" y="193.57" fill="#D9B8FF" font-family="Helvetica" font-size="17" textLength="113">aws_resource</text><rect width="113" height="39.789" x="82" y="7" fill="#3D176E" rx="2.5" ry="2.5" style="stroke:#000d19;stroke-width:.5"/><circle cx="97" cy="26.895" r="11" fill="#ADD1B2" style="stroke:#181818;stroke-width:1"/><path d="M99.969 32.535q-.578.297-1.219.438-.64.156-1.344.156-2.5 0-3.828-1.64-1.312-1.657-1.312-4.782t1.312-4.781q1.328-1.656 3.828-1.656.703 0 1.344.156.656.156 1.219.453v2.719q-.625-.578-1.219-.844-.594-.281-1.219-.281-1.344 0-2.031 1.078-.687 1.062-.687 3.156t.687 3.172q.688 1.062 2.031 1.062.625 0 1.219-.265.594-.281 1.219-.86z"/><text x="116" y="32.78" fill="#D9B8FF" font-family="Helvetica" font-size="17" textLength="71">resource</text><path fill="none" d="M138.5 225.84v102.41m0-120.41-6 18h12zm0-142.79v102.41m0-120.41-6 18h12z" style="stroke:#ffaf37;stroke-width:2"/></svg>
